projects/front-end-library/src/lib/components/logo/svg/logo-videotron-business-large-fr.svg

<svg width="256" height="72" viewBox="0 0 256 72" fill="none" xmlns="http://www.w3.org/2000/svg">
    <path d="M72 0H0V72H72V0Z" class="fill-brand"/>
    <path d="M19.4496 18.4778L54.2802 35.7978L19.4077 53.5199L41.8377 35.8512L19.4496 18.4778Z" fill="#050504"/>
    <path d="M96.6872 29.9823L92.8903 17.9861H90L95.0846 33.4827H98.2542L103.362 17.9861H100.502L96.6872 29.9823Z" fill="currentColor"/>
    <path d="M137.578 13.8401H134.621L132.666 16.3761H135.137L137.578 13.8401Z" fill="currentColor"/>
    <path d="M139.083 30.8905H132.086V27.0917H138.588V24.4868H132.086V20.5782H139.083V17.9861H129.376V33.4827H139.083V30.8905Z" fill="currentColor"/>
    <path d="M122.819 33.0183C123.551 32.5225 124.197 31.9098 124.731 31.2044C125.005 30.7622 125.141 30.2476 125.12 29.7272V21.7977C125.146 21.2739 125.002 20.7558 124.711 20.3205C124.399 19.8766 123.421 18.7642 122.849 18.43C122.372 18.1425 121.826 17.9892 121.27 17.9861H114.207V33.4852H121.27C121.816 33.4603 122.349 33.2999 122.819 33.0183V33.0183ZM116.916 30.8905V20.5782H121.013C121.093 20.5727 121.172 20.5805 121.249 20.6012C121.714 20.8889 122.104 21.2821 122.39 21.7492C122.403 21.7914 122.41 21.8352 122.41 21.8794V29.6838C122.41 29.9823 121.635 30.6635 121.27 30.8701C121.214 30.8858 121.157 30.8927 121.099 30.8905H116.916Z" fill="currentColor"/>
    <path d="M109.457 17.9861H106.747V33.4929H109.457V17.9861Z" fill="currentColor"/>
    <path d="M210.713 17.9861V28.4081L205.412 17.9861H202.499V33.4827H205.206V23.1907L210.55 33.4827H213.42V17.9861H210.713Z" fill="currentColor"/>
    <path d="M183.524 33.4852L180.459 27.1656C180.699 27.0792 180.925 26.9552 181.127 26.7983C181.642 26.3951 182.11 25.9356 182.524 25.4282C182.834 24.9574 182.996 24.4035 182.988 23.8388V21.563C182.991 21.0022 182.829 20.4531 182.524 19.9837C182.114 19.4569 181.645 18.9792 181.127 18.5601C180.587 18.1914 179.951 17.9917 179.298 17.9861H172.045V33.4852H174.752V27.3621H177.718L180.588 33.4852H183.524ZM180.278 23.8183C180.276 23.8562 180.265 23.8929 180.245 23.9255C180.042 24.2827 179.527 24.7802 179.298 24.7802H174.752V20.5782H179.428C179.682 20.6012 180.096 21.1165 180.245 21.4099C180.269 21.4647 180.28 21.5239 180.278 21.5834V23.8183Z" fill="currentColor"/>
    <path d="M196.129 18.3432C195.644 18.0529 195.093 17.893 194.529 17.8789H190.598C190.033 17.8913 189.482 18.0513 188.997 18.3432C188.459 18.6571 187.425 19.7669 187.116 20.2133C186.833 20.6525 186.69 21.1678 186.707 21.6905V29.8113C186.691 30.3307 186.834 30.8426 187.116 31.2783C187.425 31.7248 188.459 32.8448 188.997 33.1484C189.481 33.4437 190.032 33.6073 190.598 33.623H194.521C195.086 33.605 195.637 33.4416 196.121 33.1484C196.66 32.8448 197.671 31.7248 198.003 31.2783C198.285 30.8422 198.428 30.3308 198.415 29.8113V21.6905C198.429 21.1694 198.285 20.6562 198.003 20.2184C197.671 19.7669 196.66 18.6571 196.129 18.3432ZM195.723 29.7807C195.721 29.8187 195.71 29.8555 195.69 29.8879C195.388 30.3271 195.005 30.7046 194.562 31.0002C194.52 31.0135 194.477 31.0204 194.433 31.0206H190.704C190.66 31.0225 190.616 31.0155 190.575 31.0002C190.126 30.7082 189.74 30.3302 189.437 29.8879C189.422 29.8542 189.414 29.8177 189.414 29.7807V21.7645C189.414 21.721 189.422 21.6779 189.437 21.637C189.74 21.1886 190.126 20.8031 190.575 20.5016C190.598 20.471 190.704 20.471 190.704 20.471H194.425C194.47 20.4695 194.515 20.4801 194.554 20.5016C194.997 20.8064 195.38 21.1914 195.682 21.637C195.715 21.6701 195.715 21.7645 195.715 21.7645L195.723 29.7807Z" fill="currentColor"/>
    <path d="M168.377 17.9861H157.304V20.5782H161.487V33.4929H164.194V20.5782H168.377V17.9861Z" fill="currentColor"/>
    <path d="M154.393 31.2783C154.668 30.8396 154.809 30.3297 154.8 29.8113V21.6905C154.811 21.1688 154.67 20.6552 154.393 20.2133C154.058 19.7669 153.047 18.6571 152.499 18.3432C152.02 18.0574 151.478 17.8977 150.921 17.8789H146.985C146.419 17.8901 145.867 18.0502 145.382 18.3432C144.826 18.6571 143.81 19.7669 143.503 20.2184C143.216 20.6565 143.069 21.1717 143.081 21.6956V29.8113C143.071 30.3319 143.218 30.8434 143.503 31.2783C143.802 31.7248 144.836 32.8448 145.382 33.1484C145.866 33.4447 146.418 33.6083 146.985 33.623H150.921C151.483 33.6032 152.03 33.4399 152.511 33.1484C153.047 32.8448 154.058 31.7248 154.393 31.2783ZM152.09 29.7807C152.089 29.8173 152.082 29.8535 152.069 29.8879C151.761 30.3288 151.371 30.7064 150.921 31.0002C150.879 31.0133 150.836 31.0202 150.792 31.0206H147.081C147.038 31.0216 146.995 31.0147 146.954 31.0002C146.507 30.7085 146.122 30.3304 145.822 29.8879C145.801 29.8559 145.791 29.8186 145.791 29.7807V21.7645C145.792 21.7203 145.802 21.6767 145.822 21.637C146.122 21.1883 146.507 20.8027 146.954 20.5016C146.985 20.471 147.081 20.471 147.081 20.471H150.802C150.847 20.4695 150.892 20.4801 150.932 20.5016C151.378 20.8058 151.763 21.1909 152.069 21.637C152.084 21.6779 152.091 21.7211 152.09 21.7645V29.7807Z" fill="currentColor"/>
    <path d="M118.679 53.8698H120.238V46.8639H127.182V45.3612H120.238V39.8657H127.558V38.3528H118.679V53.8698Z" fill="currentColor"/>
    <path d="M105.726 53.8698H107.283V46.8639H114.219V45.3612H107.283V39.8657H114.605V38.3528H105.726V53.8698Z" fill="currentColor"/>
    <path d="M97.5126 38.3528H95.1583L90 53.8162V53.8698H91.6305L92.8141 50.2852H99.8721L101.012 53.8392V53.8698H102.678L97.5228 38.3757L97.5126 38.3528ZM96.4688 39.8989L99.3844 48.7748H93.289L96.1792 39.8989H96.4688Z" fill="currentColor"/>
    <path d="M188.586 46.3335L181.589 44.3792C181.361 44.2962 181.164 44.1431 181.027 43.9416C180.891 43.7401 180.821 43.5004 180.827 43.2566V41.6493C180.833 41.5383 180.866 41.4305 180.924 41.3355C181.326 40.7211 181.868 40.2107 182.503 39.8455C182.6 39.7969 182.708 39.7749 182.816 39.7817H186.427C186.535 39.7755 186.643 39.8013 186.737 39.8557C187.37 40.2654 187.9 40.8164 188.286 41.4656C188.353 41.5682 188.411 41.6766 188.459 41.7896L188.479 41.8228L190.003 41.3686H190.046L190.024 41.3355C189.858 40.9784 189.66 40.6369 189.434 40.315C189.132 39.917 188.418 39.0393 187.832 38.6847C187.431 38.4397 186.977 38.2985 186.508 38.2739H182.699C182.23 38.2956 181.775 38.4369 181.376 38.6847C180.699 39.2004 180.101 39.8114 179.598 40.4987C179.371 40.8839 179.263 41.3275 179.285 41.7743V43.3612C179.285 44.5374 179.941 45.5528 180.898 45.8232L187.916 47.7545C188.423 47.8847 188.713 48.4459 188.713 48.923V50.5788C188.711 50.6878 188.685 50.7949 188.637 50.8926C188.222 51.5147 187.675 52.0373 187.037 52.4234C186.947 52.4696 186.846 52.4916 186.745 52.4872H182.681C182.563 52.4928 182.446 52.471 182.338 52.4234C181.714 51.9994 181.186 51.4473 180.789 50.8033C180.716 50.7167 180.657 50.6184 180.616 50.5125V50.4793L179.12 50.9028H179.077L179.1 50.9462C179.257 51.2984 179.449 51.6342 179.671 51.9489C179.961 52.3494 180.687 53.2118 181.261 53.5817C181.672 53.8302 182.137 53.9739 182.615 54.0001H186.874C187.343 53.9774 187.798 53.8333 188.195 53.5817C188.874 53.0796 189.473 52.4775 189.973 51.7958C190.206 51.413 190.319 50.9685 190.298 50.5201V48.7725C190.255 47.6066 189.566 46.6141 188.586 46.3335Z" fill="currentColor"/>
    <path d="M166.183 53.8698H175.062V52.3492H167.742V46.8639H174.678V45.3612H167.742V39.8657H175.062V38.3528H166.183V53.8698Z" fill="currentColor"/>
    <path d="M159.917 46.5505C160.402 46.1497 160.842 45.6972 161.23 45.2009C161.494 44.8013 161.633 44.3309 161.626 43.8512V41.5806C161.631 41.0979 161.493 40.6248 161.23 40.2207C160.84 39.7177 160.4 39.256 159.917 38.843C159.471 38.5159 158.933 38.3375 158.381 38.3328H151.429V53.8702H152.989V47.0454H156.773L160.547 53.8497V53.8702H162.325L158.497 47.0454C159.011 47.0377 159.509 46.8642 159.917 46.5505ZM152.994 39.8635H158.358C158.502 39.8485 158.647 39.8751 158.777 39.9401C159.283 40.2617 159.707 40.6987 160.014 41.2157C160.062 41.3548 160.079 41.5029 160.064 41.6494V43.8078C160.077 43.9504 160.059 44.094 160.011 44.2288C159.701 44.7289 159.277 45.1477 158.774 45.4509C158.646 45.5204 158.501 45.5539 158.355 45.5478H152.994V39.8635Z" fill="currentColor"/>
    <path d="M146.825 38.3528H145.265V53.8698H146.825V38.3528Z" fill="currentColor"/>
    <path d="M137.052 38.3528H134.697L129.537 53.8162V53.8698H131.17L132.353 50.2852H139.416L140.567 53.8392V53.8698H142.233L137.062 38.3757L137.052 38.3528ZM136.008 39.8989L138.924 48.7748H132.828L135.718 39.8989H136.008Z" fill="currentColor"/>
</svg>

<svg width="256" height="72" fill="none" xmlns="http://www.w3.org/2000/svg"><path d="M72 0H0v72h72V0Z" class="fill-brand"/><path d="m19.45 18.478 34.83 17.32L19.408 53.52l22.43-17.669L19.45 18.478Z" fill="#050504"/><path d="M96.687 29.982 92.89 17.986H90l5.085 15.497h3.17l5.107-15.497h-2.86l-3.815 11.996ZM137.578 13.84h-2.957l-1.955 2.536h2.471l2.441-2.536ZM139.083 30.89h-6.997v-3.798h6.502v-2.605h-6.502v-3.909h6.997v-2.592h-9.707v15.497h9.707V30.89ZM122.819 33.018a8.084 8.084 0 0 0 1.912-1.814c.274-.442.41-.956.389-1.477v-7.93a2.441 2.441 0 0 0-.409-1.477c-.312-.443-1.29-1.556-1.862-1.89a3.093 3.093 0 0 0-1.579-.444h-7.063v15.5h7.063a3.31 3.31 0 0 0 1.549-.468Zm-5.903-2.128V20.578h4.097a.716.716 0 0 1 .236.023c.465.288.855.681 1.141 1.148.013.042.02.086.02.13v7.805c0 .298-.775.98-1.14 1.186a.552.552 0 0 1-.171.02h-4.183ZM109.457 17.986h-2.71v15.507h2.71V17.986ZM210.713 17.986v10.422l-5.301-10.422h-2.913v15.497h2.707V23.19l5.344 10.292h2.87V17.986h-2.707ZM183.524 33.485l-3.065-6.32c.24-.086.466-.21.668-.367a8.822 8.822 0 0 0 1.397-1.37c.31-.47.472-1.024.464-1.59v-2.275a2.871 2.871 0 0 0-.464-1.58 8.723 8.723 0 0 0-1.397-1.423 3.292 3.292 0 0 0-1.829-.574h-7.253v15.5h2.707v-6.124h2.966l2.87 6.123h2.936Zm-3.246-9.667a.227.227 0 0 1-.033.107c-.203.358-.718.855-.947.855h-4.546v-4.202h4.676c.254.023.668.538.817.832a.398.398 0 0 1 .033.173v2.235ZM196.129 18.343a3.274 3.274 0 0 0-1.6-.464h-3.931a3.24 3.24 0 0 0-1.601.464c-.538.314-1.572 1.424-1.881 1.87-.283.44-.426.955-.409 1.477v8.121c-.016.52.127 1.032.409 1.467.309.447 1.343 1.567 1.881 1.87a3.245 3.245 0 0 0 1.601.475h3.923a3.29 3.29 0 0 0 1.6-.475c.539-.303 1.55-1.423 1.882-1.87.282-.436.425-.947.412-1.467v-8.12a2.59 2.59 0 0 0-.412-1.473c-.332-.451-1.343-1.56-1.874-1.875Zm-.406 11.438a.226.226 0 0 1-.033.107c-.302.44-.685.817-1.128 1.112a.432.432 0 0 1-.129.02h-3.729a.329.329 0 0 1-.129-.02 4.068 4.068 0 0 1-1.138-1.112.264.264 0 0 1-.023-.107v-8.016a.37.37 0 0 1 .023-.128 4.198 4.198 0 0 1 1.138-1.135c.023-.031.129-.031.129-.031h3.721c.045-.002.09.01.129.03.443.305.826.69 1.128 1.136.033.033.033.128.033.128l.008 8.016ZM168.377 17.986h-11.073v2.592h4.183v12.915h2.707V20.578h4.183v-2.592ZM154.393 31.278c.275-.438.416-.948.407-1.467v-8.12a2.675 2.675 0 0 0-.407-1.478c-.335-.446-1.346-1.556-1.894-1.87a3.294 3.294 0 0 0-1.578-.464h-3.936a3.221 3.221 0 0 0-1.603.464c-.556.314-1.572 1.424-1.879 1.875a2.587 2.587 0 0 0-.422 1.478v8.115c-.01.52.137 1.032.422 1.467.299.447 1.333 1.567 1.879 1.87.484.297 1.036.46 1.603.475h3.936a3.29 3.29 0 0 0 1.59-.475c.536-.303 1.547-1.423 1.882-1.87Zm-2.303-1.497a.328.328 0 0 1-.021.107c-.308.44-.698.818-1.148 1.112a.445.445 0 0 1-.129.02h-3.711a.356.356 0 0 1-.127-.02 4.026 4.026 0 0 1-1.132-1.112.194.194 0 0 1-.031-.107v-8.016a.298.298 0 0 1 .031-.128c.3-.449.685-.834 1.132-1.135.031-.031.127-.031.127-.031h3.721c.045-.002.09.01.13.03.446.305.831.69 1.137 1.136.015.04.022.084.021.128v8.016ZM118.679 53.87h1.559v-7.006h6.944V45.36h-6.944v-5.495h7.32v-1.513h-8.879V53.87ZM105.726 53.87h1.557v-7.006h6.936V45.36h-6.936v-5.495h7.322v-1.513h-8.879V53.87ZM97.513 38.353h-2.355L90 53.816v.054h1.63l1.184-3.585h7.058l1.14 3.554v.03h1.666l-5.155-15.493-.01-.023Zm-1.044 1.546 2.915 8.876H93.29l2.89-8.876h.29ZM188.586 46.334l-6.997-1.955a1.16 1.16 0 0 1-.762-1.122v-1.608a.671.671 0 0 1 .097-.313 4.67 4.67 0 0 1 1.579-1.49.613.613 0 0 1 .313-.064h3.611a.556.556 0 0 1 .31.074 4.9 4.9 0 0 1 1.549 1.61c.067.102.125.21.173.324l.02.033 1.524-.454h.043l-.022-.033a6.671 6.671 0 0 0-.59-1.021c-.302-.398-1.016-1.276-1.602-1.63a2.82 2.82 0 0 0-1.324-.411h-3.809a2.747 2.747 0 0 0-1.323.41 8.846 8.846 0 0 0-1.778 1.815 2.29 2.29 0 0 0-.313 1.275v1.587c0 1.176.656 2.192 1.613 2.462l7.018 1.931c.507.13.797.692.797 1.169v1.656a.742.742 0 0 1-.076.314 5.095 5.095 0 0 1-1.6 1.53.585.585 0 0 1-.292.064h-4.064a.76.76 0 0 1-.343-.064 5.357 5.357 0 0 1-1.549-1.62 1.028 1.028 0 0 1-.173-.29v-.034l-1.496.424h-.043l.023.043c.157.352.349.688.571 1.003.29.4 1.016 1.263 1.59 1.633.411.248.876.392 1.354.418h4.259a2.712 2.712 0 0 0 1.321-.418 8.396 8.396 0 0 0 1.778-1.786c.233-.383.346-.828.325-1.276v-1.748c-.043-1.165-.732-2.158-1.712-2.438ZM166.183 53.87h8.879v-1.52h-7.32v-5.486h6.936V45.36h-6.936v-5.495h7.32v-1.513h-8.879V53.87ZM159.917 46.55c.485-.4.925-.853 1.313-1.35.264-.399.403-.87.396-1.349v-2.27a2.447 2.447 0 0 0-.396-1.36 9.354 9.354 0 0 0-1.313-1.378 2.637 2.637 0 0 0-1.536-.51h-6.952V53.87h1.56v-6.825h3.784l3.774 6.805v.02h1.778l-3.828-6.825a2.388 2.388 0 0 0 1.42-.495Zm-6.923-6.686h5.364a.76.76 0 0 1 .419.076c.506.322.93.759 1.237 1.276.048.139.065.287.05.433v2.159a.987.987 0 0 1-.053.42c-.31.5-.734.92-1.237 1.223a.808.808 0 0 1-.419.097h-5.361v-5.684ZM146.825 38.353h-1.56V53.87h1.56V38.353ZM137.052 38.353h-2.355l-5.16 15.463v.054h1.633l1.183-3.585h7.063l1.151 3.554v.03h1.666l-5.171-15.493-.01-.023Zm-1.044 1.546 2.916 8.876h-6.096l2.89-8.876h.29Z" fill="currentColor"/></svg>
